X: 1
T: Laz Bar
O: Armenia
Z: John Chambers <jc@trillian.mit.edu> http://trillian.mit.edu/~jc/music/
M: 7/8
L: 1/8
K: Em
EFG \
"A"|: "Am"A2 A2 AGF | "Em"G2 G2 GFE | "Dm"=F2 F2 FED |1,3 "Em"E2 E2 EFG :|2,4 "Em"E2 E2 "fine"E2z :|
"B"|: "G"D2 G2 GGD | G2 G2 GGD | G2 G2 GGA | B2 BG "D"A2z :|
"C"|: "Em"G2 A2 "D"FED | "Em"E2 E2 "Dm"=FED | "Em"G2 A2 "D"FED | "Em"E2 E2 E2z :|
"D"|: "G" G2 A2 BBB | B2 B2 BAG | "D"A2 A2 AGF | "Em"G2 G2 G2z :|
